X:622
T:BLUBLLS - The Blue Bells of Scotland
O:england
Q:1/4=120
L:1/8
M:C
K:Eb
B|e2d cB2c (d/e/)|G G A F E3B|e2d cB2c (d/e/)|\
G G A FE2zB|G3/2 E/ G B e2 d/e/|d B c =AB3(c/ d/)|\
e2d c B3/2 B/ (c d/e/)|G3/2 G/ A F E3B|G3/2 E/ G B e2 c (d/e/)|\
d B (d/c/) (B/=A/)B3 (c/ d/)|e2d c B3/2 B/ (c d/e/)|\
G3/2 G/ A F E2|]


